Numix-Circle/48x48/apps/calligraflow.svg

<?xml version="1.0" encoding="UTF-8" standalone="no"?>
<svg
   xmlns:dc="http://purl.org/dc/elements/1.1/"
   xmlns:cc="http://creativecommons.org/ns#"
   xmlns:rdf="http://www.w3.org/1999/02/22-rdf-syntax-ns#"
   xmlns:svg="http://www.w3.org/2000/svg"
   xmlns="http://www.w3.org/2000/svg"
   xmlns:xlink="http://www.w3.org/1999/xlink"
   xmlns:sodipodi="http://sodipodi.sourceforge.net/DTD/sodipodi-0.dtd"
   xmlns:inkscape="http://www.inkscape.org/namespaces/inkscape"
   width="48"
   viewBox="0 0 13.546667 13.546667"
   height="48"
   id="svg2"
   version="1.1"
   inkscape:version="0.91 r13725"
   sodipodi:docname="calligraflow.svg"
   inkscape:export-filename="/home/ismael/Imágenes/calligra/calligraflow.png"
   inkscape:export-xdpi="245"
   inkscape:export-ydpi="245">
  <metadata
     id="metadata331">
    <rdf:RDF>
      <cc:Work
         rdf:about="">
        <dc:format>image/svg+xml</dc:format>
        <dc:type
           rdf:resource="http://purl.org/dc/dcmitype/StillImage" />
        <dc:title />
      </cc:Work>
    </rdf:RDF>
  </metadata>
  <sodipodi:namedview
     pagecolor="#ffffff"
     bordercolor="#666666"
     borderopacity="1"
     objecttolerance="10"
     gridtolerance="10"
     guidetolerance="10"
     inkscape:pageopacity="0"
     inkscape:pageshadow="2"
     inkscape:window-width="1366"
     inkscape:window-height="713"
     id="namedview329"
     showgrid="false"
     inkscape:zoom="11.833333"
     inkscape:cx="-5.4058161"
     inkscape:cy="24.350636"
     inkscape:window-x="0"
     inkscape:window-y="28"
     inkscape:window-maximized="1"
     inkscape:current-layer="layer3"
     showguides="true"
     inkscape:guide-bbox="true"
     inkscape:object-paths="true"
     inkscape:snap-intersection-paths="true"
     inkscape:snap-smooth-nodes="true"
     inkscape:object-nodes="true">
    <inkscape:grid
       type="xygrid"
       id="grid3308" />
  </sodipodi:namedview>
  <defs
     id="defs4">
    <linearGradient
       inkscape:collect="always"
       id="linearGradient4568">
      <stop
         style="stop-color:#d6ecf6;stop-opacity:1"
         offset="0"
         id="stop4570" />
      <stop
         style="stop-color:#e6f4fa;stop-opacity:1"
         offset="1"
         id="stop4572" />
    </linearGradient>
    <linearGradient
       inkscape:collect="always"
       xlink:href="#linearGradient4568"
       id="linearGradient4574"
       x1="-13.264444"
       y1="6.7733335"
       x2="-0.28222221"
       y2="6.7733335"
       gradientUnits="userSpaceOnUse" />
  </defs>
  <g
     inkscape:groupmode="layer"
     id="layer1"
     inkscape:label="Shadow"
     sodipodi:insensitive="true">
    <path
       style="opacity:0.05;fill:#000000;fill-opacity:1;stroke:none"
       d="M 25,2 C 12.297451,2 2,12.297451 2,25 2,31.367153 4.6007106,37.116628 8.78125,41.28125 12.865755,44.99361 18.29568,47.25 24.25,47.25 c 12.702549,0 23,-10.297451 23,-23 0,-5.95432 -2.25639,-11.384245 -5.96875,-15.46875 C 37.116628,4.6007105 31.367153,2 25,2 z M 41.28125,8.78125 C 45.135604,12.894061 47.5,18.418655 47.5,24.5 c 0,12.702549 -10.297451,23 -23,23 C 18.418655,47.5 12.894061,45.135604 8.78125,41.28125 12.940939,45.4251 18.664604,48 25,48 37.702549,48 48,37.702549 48,25 48,18.664604 45.4251,12.940939 41.28125,8.78125 z"
       transform="scale(0.28222223,0.28222223)"
       id="path3978"
       inkscape:connector-curvature="0" />
    <path
       style="opacity:0.1;fill:#000000;fill-opacity:1;stroke:none"
       d="M 41.28125,8.78125 C 44.99361,12.865755 47.25,18.29568 47.25,24.25 c 0,12.702549 -10.297451,23 -23,23 -5.95432,0 -11.384245,-2.25639 -15.46875,-5.96875 C 12.894061,45.135604 18.418655,47.5 24.5,47.5 c 12.702549,0 23,-10.297451 23,-23 0,-6.081345 -2.364396,-11.605939 -6.21875,-15.71875 z"
       transform="scale(0.28222223,0.28222223)"
       id="path3976"
       inkscape:connector-curvature="0" />
    <path
       transform="matrix(4.3274074,0,0,3.2455556,117.19278,-35.348334)"
       d="m -24,13 a 1.5,2 0 1 1 -3,0 1.5,2 0 1 1 3,0 z"
       sodipodi:ry="2"
       sodipodi:rx="1.5"
       sodipodi:cy="13"
       sodipodi:cx="-25.5"
       id="path3952"
       style="opacity:0.2;fill:#000000;fill-opacity:1;stroke:none"
       sodipodi:type="arc" />
  </g>
  <g
     inkscape:groupmode="layer"
     id="layer2"
     inkscape:label="Base">
    <circle
       style="fill:url(#linearGradient4574);fill-opacity:1;stroke:none"
       id="path3942"
       transform="matrix(0,-1,1,0,0,0)"
       cx="-6.7733335"
       cy="6.7733335"
       r="6.4911113" />
    <path
       style="opacity:0.1;fill:#000000;fill-opacity:1;stroke:none"
       d="M 40.03125 7.53125 C 43.74361 11.615755 46 17.04568 46 23 C 46 35.702549 35.702549 46 23 46 C 17.04568 46 11.615755 43.74361 7.53125 40.03125 C 11.709416 44.322508 17.537578 47 24 47 C 36.702549 47 47 36.702549 47 24 C 47 17.537578 44.322508 11.709416 40.03125 7.53125 z "
       transform="scale(0.28222223,0.28222223)"
       id="path4027" />
    <path
       style="color:#000000;font-style:normal;font-variant:normal;font-weight:normal;font-stretch:normal;font-size:medium;line-height:normal;font-family:sans-serif;text-indent:0;text-align:start;text-decoration:none;text-decoration-line:none;text-decoration-style:solid;text-decoration-color:#000000;letter-spacing:normal;word-spacing:normal;text-transform:none;direction:ltr;block-progression:tb;writing-mode:lr-tb;baseline-shift:baseline;text-anchor:start;white-space:normal;clip-rule:nonzero;display:inline;overflow:visible;visibility:visible;opacity:0.6;isolation:auto;mix-blend-mode:normal;color-interpolation:sRGB;color-interpolation-filters:linearRGB;solid-color:#000000;solid-opacity:1;fill:#1a1a1a;fill-opacity:1;fill-rule:nonzero;stroke:none;stroke-width:0.56444442;stroke-linecap:butt;stroke-linejoin:miter;stroke-miterlimit:4;stroke-dasharray:none;stroke-dashoffset:0;stroke-opacity:1;color-rendering:auto;image-rendering:auto;shape-rendering:auto;text-rendering:auto;enable-background:accumulate"
       d="m 7.1768186,2.505818 c -2.334836,10e-8 -4.2333335,1.8984978 -4.2333334,4.2333332 0,2.3348357 1.8984974,4.2333338 4.2333334,4.2333338 1.3658028,0 2.5785357,-0.652554 3.3530424,-1.6591584 l -0.6906728,0 C 9.1661124,10.009414 8.2237637,10.443318 7.1768186,10.443318 c -2.0488574,0 -3.7041666,-1.6553094 -3.7041666,-3.7041668 0,-2.0488571 1.6553092,-3.7041666 3.7041666,-3.7041666 1.0802922,0 2.0481393,0.4629144 2.7246569,1.1983421 l 0.6796485,0 C 9.8096626,3.1879784 8.573212,2.505818 7.1768186,2.505818 Z"
       id="path4522"
       inkscape:connector-curvature="0" />
  </g>
  <g
     inkscape:groupmode="layer"
     id="layer3"
     inkscape:label="Symbol">
    <g
       id="g3404"
       transform="translate(0.28222212,0.28222228)"
       style="fill:#000000;opacity:0.1">
      <path
         style="fill:#000000;fill-opacity:1;fill-rule:nonzero;stroke:none"
         d="M 32.947266 15.800781 A 4.0526309 4.2000002 0 0 0 28.894531 20 L 26 20 L 26 17 L 15 17 L 15 23 L 19.630859 23 L 19.630859 24 L 15 24 L 15 34 L 26 34 L 26 31 L 28 31 L 28 34 L 37 34 L 37 27 L 33 27 L 33 24.197266 A 4.0526309 4.2000002 0 0 0 37 20 A 4.0526309 4.2000002 0 0 0 32.947266 15.800781 z M 29 20.927734 A 4.0526309 4.2000002 0 0 0 32 24.078125 L 32 27 L 28 27 L 28 30 L 26 30 L 26 24 L 20.789062 24 L 20.789062 23 L 26 23 L 26 21 L 29 21 L 29 20.927734 z "
         transform="matrix(0.28222223,0,0,0.28222223,-0.28222212,-0.28222228)"
         id="rect3406" />
    </g>
    <g
       id="g3394">
      <rect
         y="4.5155559"
         x="3.9511113"
         height="1.6933331"
         width="3.1044445"
         id="rect4524"
         style="fill:#cd87de;fill-opacity:1;fill-rule:nonzero;stroke:none" />
      <rect
         y="5.3622222"
         x="7.0555558"
         height="0.28222212"
         width="0.84666693"
         id="rect4526"
         style="fill:#b3b3b3;fill-opacity:1;fill-rule:nonzero;stroke:none" />
      <rect
         style="fill:#b3b3b3;fill-opacity:1;fill-rule:nonzero;stroke:none"
         id="rect4536"
         width="0.28222236"
         height="0.84666669"
         x="8.748889"
         y="6.4911113" />
      <ellipse
         transform="matrix(1.1578946,1.2166065e-8,-3.3483931e-8,1.1999999,-1.2774258,-0.90311039)"
         ry="0.98777795"
         rx="0.98777777"
         cy="5.2211113"
         cx="8.8900003"
         id="path4528"
         style="fill:#de8787;fill-opacity:1;fill-rule:nonzero;stroke:none" />
      <rect
         y="6.208889"
         x="5.2582459"
         height="0.33866653"
         width="0.32678357"
         id="rect4530"
         style="fill:#b3b3b3;fill-opacity:1;fill-rule:nonzero;stroke:none" />
      <rect
         y="6.4911113"
         x="3.9511113"
         height="2.8222222"
         width="3.1044445"
         id="rect4532"
         style="fill:#87aade;fill-opacity:1;fill-rule:nonzero;stroke:none" />
      <rect
         y="7.3377781"
         x="7.6200004"
         height="1.9755554"
         width="2.54"
         id="rect4534"
         style="fill:#5fd38d;fill-opacity:1;fill-rule:nonzero;stroke:none" />
      <rect
         style="fill:#b3b3b3;fill-opacity:1;fill-rule:nonzero;stroke:none"
         id="rect4538"
         width="0.56444436"
         height="0.28222245"
         x="7.0555558"
         y="8.1844444" />
    </g>
  </g>
</svg>

<svg xmlns="http://www.w3.org/2000/svg" width="48" viewBox="0 0 13.546667 13.546667" height="48"><defs><linearGradient id="linearGradient4574" x1="-13.264" x2="-0.282" gradientUnits="userSpaceOnUse"><stop stop-color="#d6ecf6" stop-opacity="1"/><stop offset="1" stop-color="#e6f4fa" stop-opacity="1"/></linearGradient></defs><g><path d="m 25 2 c -12.703 0 -23 10.297 -23 23 0 6.367 2.601 12.12 6.781 16.281 4.085 3.712 9.514 5.969 15.469 5.969 c 12.703 0 23 -10.297 23 -23 0 -5.954 -2.256 -11.384 -5.969 -15.469 c -4.165 -4.181 -9.914 -6.781 -16.281 -6.781 z m 16.281 6.781 c 3.854 4.113 6.219 9.637 6.219 15.719 c 0 12.703 -10.297 23 -23 23 c -6.081 0 -11.606 -2.364 -15.719 -6.219 4.16 4.144 9.883 6.719 16.219 6.719 12.703 0 23 -10.297 23 -23 0 -6.335 -2.575 -12.06 -6.719 -16.219 z" transform="scale(0.28222223,0.28222223)" opacity="0.05" fill="#000" stroke="none" fill-opacity="1"/><path d="m 41.28 8.781 c 3.712 4.085 5.969 9.514 5.969 15.469 c 0 12.703 -10.297 23 -23 23 -5.954 0 -11.384 -2.256 -15.469 -5.969 c 4.113 3.854 9.637 6.219 15.719 6.219 c 12.703 0 23 -10.297 23 -23 0 -6.081 -2.364 -11.606 -6.219 -15.719 z" transform="scale(0.28222223,0.28222223)" opacity="0.1" fill="#000" stroke="none" fill-opacity="1"/><path transform="matrix(4.3274074,0,0,3.2455556,117.19278,-35.348334)" d="m -24 13 a 1.5 2 0 1 1 -3 0 1.5 2 0 1 1 3 0 z" opacity="0.2" fill="#000" stroke="none" fill-opacity="1"/></g><g><circle transform="matrix(0,-1,1,0,0,0)" cx="-6.773" cy="6.773" r="6.491" fill="url(#linearGradient4574)" stroke="none" fill-opacity="1"/><path d="m 40.03 7.531 c 3.712 4.085 5.969 9.514 5.969 15.469 c 0 12.703 -10.297 23 -23 23 c -5.954 0 -11.384 -2.256 -15.469 -5.969 c 4.178 4.291 10.01 6.969 16.469 6.969 c 12.703 0 23 -10.297 23 -23 c 0 -6.462 -2.677 -12.291 -6.969 -16.469 z" transform="scale(0.28222223,0.28222223)" opacity="0.1" fill="#000" stroke="none" fill-opacity="1"/><path d="m 7.177 2.506 c -2.335 0 -4.233 1.898 -4.233 4.233 0 2.335 1.898 4.233 4.233 4.233 1.366 0 2.579 -0.653 3.353 -1.659 l -0.691 0 c -0.673 0.696 -1.615 1.13 -2.662 1.13 c -2.049 0 -3.704 -1.655 -3.704 -3.704 0 -2.049 1.655 -3.704 3.704 -3.704 1.08 0 2.048 0.463 2.725 1.198 l 0.68 0 c -0.771 -1.045 -2.01 -1.728 -3.404 -1.728" visibility="visible" shape-rendering="auto" mix-blend-mode="normal" color-interpolation-filters="linearRGB" isolation="auto" white-space="normal" opacity="0.6" fill="#1a1a1a" solid-opacity="1" image-rendering="auto" fill-opacity="1" solid-color="#000000" stroke="none" display="inline" color="#000" fill-rule="nonzero" color-rendering="auto" color-interpolation="sRGB"/></g><g><g transform="translate(0.28222212,0.28222228)" opacity="0.1" fill="#000"><path d="M 32.947 15.801 A 4.053 4.2 0 0 0 28.895 20 L 26 20 L 26 17 L 15 17 L 15 23 L 19.631 23 L 19.631 24 L 15 24 L 15 34 L 26 34 L 26 31 L 28 31 L 28 34 L 37 34 L 37 27 L 33 27 L 33 24.2 A 4.053 4.2 0 0 0 37 20 A 4.053 4.2 0 0 0 32.947 15.801 z M 29 20.928 A 4.053 4.2 0 0 0 32 24.08 L 32 27 L 28 27 L 28 30 L 26 30 L 26 24 L 20.789 24 L 20.789 23 L 26 23 L 26 21 L 29 21 L 29 20.928 z" transform="matrix(0.28222223,0,0,0.28222223,-0.28222212,-0.28222228)" fill="#000" fill-rule="nonzero" stroke="none" fill-opacity="1"/></g><g><rect y="4.516" x="3.951" height="1.693" width="3.104" fill="#cd87de" fill-rule="nonzero" stroke="none" fill-opacity="1"/><rect y="5.362" x="7.06" height="0.282" width="0.847" fill="#b3b3b3" fill-rule="nonzero" stroke="none" fill-opacity="1"/><rect width="0.282" height="0.847" x="8.749" y="6.491" fill="#b3b3b3" fill-rule="nonzero" stroke="none" fill-opacity="1"/><ellipse transform="matrix(1.1578946,1.2166065e-8,-3.3483931e-8,1.1999999,-1.2774258,-0.90311039)" ry="0.988" rx="0.988" cy="5.221" cx="8.89" fill="#de8787" fill-rule="nonzero" stroke="none" fill-opacity="1"/><rect y="6.209" x="5.258" height="0.339" width="0.327" fill="#b3b3b3" fill-rule="nonzero" stroke="none" fill-opacity="1"/><rect y="6.491" x="3.951" height="2.822" width="3.104" fill="#87aade" fill-rule="nonzero" stroke="none" fill-opacity="1"/><rect y="7.338" x="7.62" height="1.976" width="2.54" fill="#5fd38d" fill-rule="nonzero" stroke="none" fill-opacity="1"/><rect width="0.564" height="0.282" x="7.06" y="8.184" fill="#b3b3b3" fill-rule="nonzero" stroke="none" fill-opacity="1"/></g></g></svg>
